public/section5/GEAR.svg

<svg width="454" height="454" viewBox="0 0 454 454" fill="none" xmlns="http://www.w3.org/2000/svg">
<g filter="url(#filter0_d_24_8442)">
<path d="M74.0509 316.04L65.6672 296.826L57.2952 277.667L80.3599 256.878C79.3495 251.501 78.5495 246.255 77.9435 240.888L49.819 227.761L54.4738 186.273L84.9071 179.71C86.5629 174.62 88.5537 169.676 90.8157 164.708L72.8938 139.23L97.7104 105.595L127.276 115.231C131.216 111.618 135.508 108.192 140.018 105.046L137.134 74.1025L175.42 57.3633L196.242 80.4729C196.671 80.3785 207.416 78.5504 212.284 78.0934L225.328 49.8889L266.879 54.4707L273.381 84.9772C278.523 86.6694 283.503 88.6091 288.296 90.8191L313.923 72.8914L347.561 97.7083L337.903 127.33C341.497 131.36 344.889 135.573 347.988 139.951L379.005 137.178L394.865 173.486L372.684 196.285C373.768 201.642 374.529 206.988 375.016 212.324L403.345 225.303L398.658 266.958L368.117 273.462C366.501 278.535 364.555 283.529 362.276 288.458L380.234 313.884L355.378 347.537L325.844 337.946C321.757 341.6 317.637 344.962 313.178 348.062L315.986 379.074L296.814 387.392L277.677 395.788L256.905 372.551C251.555 373.785 246.154 374.606 240.828 375.064L227.728 403.328L186.167 398.645L179.672 368.206C174.587 366.536 169.521 364.563 164.663 362.311L139.22 380.311L105.523 355.438L115.03 325.824C111.604 321.825 108.197 317.607 104.956 313.174L74.0509 316.04ZM134.361 267.044C156.546 317.826 215.83 341.03 266.882 318.658C317.848 296.465 340.963 237.117 318.66 186.388C296.513 135.507 237.293 112.099 186.403 134.305C135.365 156.682 112.177 215.969 134.361 267.044Z" fill="url(#paint0_linear_24_8442)"/>
<g filter="url(#filter1_ii_24_8442)">
<path d="M74.0509 316.04L65.6671 296.826L57.2952 277.667L80.3599 256.878C79.3495 251.501 78.5495 246.255 77.9435 240.888L49.819 227.761L54.4738 186.273L84.9071 179.71C86.5629 174.62 88.5536 169.676 90.8157 164.708L72.8938 139.231L97.7104 105.595L127.276 115.231C131.216 111.618 135.508 108.192 140.018 105.046L137.134 74.1025L175.42 57.3633L196.242 80.4729C196.671 80.3785 207.416 78.5504 212.284 78.0934L225.328 49.889L266.879 54.4707L273.381 84.9772C278.523 86.6694 283.503 88.6091 288.296 90.8191L313.923 72.8914L347.561 97.7084L337.903 127.33C341.497 131.36 344.889 135.573 347.988 139.951L379.005 137.178L394.865 173.486L372.684 196.285C373.768 201.642 374.529 206.988 375.016 212.324L403.345 225.303L398.658 266.958L368.117 273.462C366.501 278.535 364.555 283.529 362.276 288.458L380.234 313.884L355.378 347.537L325.844 337.946C321.757 341.6 317.637 344.962 313.178 348.062L315.986 379.074L296.814 387.392L277.677 395.788L256.905 372.551C251.555 373.785 246.154 374.606 240.828 375.064L227.728 403.328L186.167 398.645L179.672 368.206C174.587 366.536 169.521 364.563 164.663 362.311L139.22 380.311L105.523 355.438L115.03 325.824C111.604 321.825 108.197 317.607 104.956 313.174L74.0509 316.04ZM134.361 267.044C156.546 317.826 215.83 341.03 266.882 318.658C317.848 296.465 340.963 237.117 318.66 186.388C296.513 135.507 237.293 112.099 186.403 134.305C135.365 156.683 112.177 215.969 134.361 267.044Z" stroke="url(#paint1_linear_24_8442)" stroke-width="16.1446" stroke-linejoin="round"/>
</g>
</g>
<defs>
<filter id="filter0_d_24_8442" x="37.1358" y="34.5463" width="410.812" height="410.724" filterUnits="userSpaceOnUse" color-interpolation-filters="sRGB">
<feFlood flood-opacity="0" result="BackgroundImageFix"/>
<feColorMatrix in="SourceAlpha" type="matrix" values="0 0 0 0 0 0 0 0 0 0 0 0 0 0 0 0 0 0 127 0" result="hardAlpha"/>
<feOffset dx="15.9596" dy="13.2997"/>
<feGaussianBlur stdDeviation="10.2851"/>
<feComposite in2="hardAlpha" operator="out"/>
<feColorMatrix type="matrix" values="0 0 0 0 0 0 0 0 0 0 0 0 0 0 0 0 0 0 0.25 0"/>
<feBlend mode="normal" in2="BackgroundImageFix" result="effect1_dropShadow_24_8442"/>
<feBlend mode="normal" in="SourceGraphic" in2="effect1_dropShadow_24_8442" result="shape"/>
</filter>
<filter id="filter1_ii_24_8442" x="41.7464" y="41.8168" width="369.671" height="369.584" filterUnits="userSpaceOnUse" color-interpolation-filters="sRGB">
<feFlood flood-opacity="0" result="BackgroundImageFix"/>
<feBlend mode="normal" in="SourceGraphic" in2="BackgroundImageFix" result="shape"/>
<feColorMatrix in="SourceAlpha" type="matrix" values="0 0 0 0 0 0 0 0 0 0 0 0 0 0 0 0 0 0 127 0" result="hardAlpha"/>
<feOffset dx="1.77329" dy="-9.7531"/>
<feComposite in2="hardAlpha" operator="arithmetic" k2="-1" k3="1"/>
<feColorMatrix type="matrix" values="0 0 0 0 0 0 0 0 0 0 0 0 0 0 0 0 0 0 0.25 0"/>
<feBlend mode="overlay" in2="shape" result="effect1_innerShadow_24_8442"/>
<feColorMatrix in="SourceAlpha" type="matrix" values="0 0 0 0 0 0 0 0 0 0 0 0 0 0 0 0 0 0 127 0" result="hardAlpha"/>
<feOffset dx="-1.77329" dy="9.7531"/>
<feComposite in2="hardAlpha" operator="arithmetic" k2="-1" k3="1"/>
<feColorMatrix type="matrix" values="0 0 0 0 1 0 0 0 0 1 0 0 0 0 1 0 0 0 0.25 0"/>
<feBlend mode="overlay" in2="effect1_innerShadow_24_8442" result="effect2_innerShadow_24_8442"/>
</filter>
<linearGradient id="paint0_linear_24_8442" x1="163.068" y1="389.648" x2="290.091" y2="63.5114" gradientUnits="userSpaceOnUse">
<stop stop-color="#FCF0D6"/>
<stop offset="1" stop-color="#FFC446"/>
</linearGradient>
<linearGradient id="paint1_linear_24_8442" x1="163.068" y1="389.648" x2="290.091" y2="63.5114" gradientUnits="userSpaceOnUse">
<stop stop-color="#FCF0D6"/>
<stop offset="1" stop-color="#FFC446"/>
</linearGradient>
</defs>
</svg>

<svg xmlns="http://www.w3.org/2000/svg" width="454" height="454" fill="none" xmlns:v="https://vecta.io/nano"><g filter="url(#A)"><path d="M74.051 316.04l-8.384-19.214-8.372-19.159 23.065-20.789c-1.01-5.377-1.81-10.623-2.416-15.99l-28.124-13.127 4.655-41.488 30.433-6.563c1.656-5.09 3.647-10.034 5.909-15.002L72.894 139.23l24.817-33.635 29.566 9.636c3.94-3.613 8.232-7.039 12.742-10.185l-2.884-30.943 38.286-16.739 20.822 23.11c.429-.094 11.174-1.922 16.042-2.379l13.044-28.205 41.551 4.582 6.502 30.506c5.142 1.692 10.122 3.632 14.915 5.842l25.627-17.928 33.638 24.817-9.658 29.622c3.594 4.03 6.986 8.243 10.085 12.621l31.017-2.773 15.86 36.308-22.181 22.799c1.084 5.357 1.845 10.703 2.332 16.039l28.329 12.979-4.687 41.655-30.541 6.504c-1.616 5.073-3.562 10.067-5.841 14.996l17.958 25.426-24.856 33.653-29.534-9.591c-4.087 3.654-8.207 7.016-12.666 10.116l2.808 31.012-19.172 8.318-19.137 8.396-20.772-23.237c-5.35 1.234-10.751 2.055-16.077 2.513l-13.1 28.264-41.561-4.683-6.495-30.439c-5.085-1.67-10.151-3.643-15.009-5.895l-25.443 18-33.697-24.873 9.507-29.614c-3.426-3.999-6.833-8.217-10.074-12.65l-30.905 2.866zm60.31-48.996c22.185 50.782 81.469 73.986 132.521 51.614 50.966-22.193 74.081-81.541 51.778-132.27-22.147-50.881-81.367-74.289-132.257-52.083-51.038 22.377-74.226 81.664-52.042 132.739z" fill="url(#C)"/><g filter="url(#B)"><path d="M74.0509 316.04L65.6671 296.826L57.2952 277.667L80.3599 256.878C79.3495 251.501 78.5495 246.255 77.9435 240.888L49.819 227.761L54.4738 186.273L84.9071 179.71C86.5629 174.62 88.5536 169.676 90.8157 164.708L72.8938 139.231L97.7104 105.595L127.276 115.231C131.216 111.618 135.508 108.192 140.018 105.046L137.134 74.1025L175.42 57.3633L196.242 80.4729C196.671 80.3785 207.416 78.5504 212.284 78.0934L225.328 49.889L266.879 54.4707L273.381 84.9772C278.523 86.6694 283.503 88.6091 288.296 90.8191L313.923 72.8914L347.561 97.7084L337.903 127.33C341.497 131.36 344.889 135.573 347.988 139.951L379.005 137.178L394.865 173.486L372.684 196.285C373.768 201.642 374.529 206.988 375.016 212.324L403.345 225.303L398.658 266.958L368.117 273.462C366.501 278.535 364.555 283.529 362.276 288.458L380.234 313.884L355.378 347.537L325.844 337.946C321.757 341.6 317.637 344.962 313.178 348.062L315.986 379.074L296.814 387.392L277.677 395.788L256.905 372.551C251.555 373.785 246.154 374.606 240.828 375.064L227.728 403.328L186.167 398.645L179.672 368.206C174.587 366.536 169.521 364.563 164.663 362.311L139.22 380.311L105.523 355.438L115.03 325.824C111.604 321.825 108.197 317.607 104.956 313.174L74.0509 316.04ZM134.361 267.044C156.546 317.826 215.83 341.03 266.882 318.658C317.848 296.465 340.963 237.117 318.66 186.388C296.513 135.507 237.293 112.099 186.403 134.305C135.365 156.683 112.177 215.969 134.361 267.044Z" stroke="url(#C)" stroke-width="16.145" stroke-linejoin="round"/></g></g><defs><filter id="A" x="37.136" y="34.546" width="410.812" height="410.724" filterUnits="userSpaceOnUse" color-interpolation-filters="sRGB"><feFlood flood-opacity="0" result="A"/><feColorMatrix in="SourceAlpha" values="0 0 0 0 0 0 0 0 0 0 0 0 0 0 0 0 0 0 127 0" result="B"/><feOffset dx="15.9596" dy="13.2997"/><feGaussianBlur stdDeviation="10.285"/><feComposite in2="B" operator="out"/><feColorMatrix values="0 0 0 0 0 0 0 0 0 0 0 0 0 0 0 0 0 0 0.25 0"/><feBlend in2="A"/><feBlend in="SourceGraphic"/></filter><filter id="B" x="41.746" y="41.817" width="369.671" height="369.584" filterUnits="userSpaceOnUse" color-interpolation-filters="sRGB"><feFlood flood-opacity="0"/><feBlend in="SourceGraphic" result="B"/><feColorMatrix in="SourceAlpha" values="0 0 0 0 0 0 0 0 0 0 0 0 0 0 0 0 0 0 127 0" result="C"/><feOffset dx="1.77329" dy="-9.7531"/><feComposite in2="C" operator="arithmetic" k2="-1" k3="1"/><feColorMatrix values="0 0 0 0 0 0 0 0 0 0 0 0 0 0 0 0 0 0 0.25 0"/><feBlend mode="overlay" in2="B" result="D"/><feColorMatrix in="SourceAlpha" values="0 0 0 0 0 0 0 0 0 0 0 0 0 0 0 0 0 0 127 0" result="C"/><feOffset dx="-1.77329" dy="9.7531"/><feComposite in2="C" operator="arithmetic" k2="-1" k3="1"/><feColorMatrix values="0 0 0 0 1 0 0 0 0 1 0 0 0 0 1 0 0 0 0.25 0"/><feBlend mode="overlay" in2="D"/></filter><linearGradient id="C" x1="163.068" y1="389.648" x2="290.091" y2="63.511" gradientUnits="userSpaceOnUse"><stop stop-color="#fcf0d6"/><stop offset="1" stop-color="#ffc446"/></linearGradient></defs></svg>
